pix/pencil.svg

<svg xmlns="http://www.w3.org/2000/svg" viewBox="0 0 100 100" style="enable-background:new 0 0 100 100"><g style="stroke-miterlimit:10;stroke-linecap:round;stroke-linejoin:round;stroke-width:3"><g style="stroke:#999"><g style="fill:#fff"><path d="m49.9 33.4h18.4l-23.3-22.3v17.5c0 2.6 2.2 4.8 4.9 4.8z"/><path d="m49.9 33.4c-2.7 0-4.8-2.1-4.8-4.8v-17.5h-37c-2.7 0-4.8 2.1-4.8 4.8v76.9c0 2.7 2.1 4.8 4.8 4.8h55.3c2.7 0 4.8-2.1 4.8-4.8v-59.4c0 0-18.3 0-18.3 0z"/></g><path d="M17.7,66.4h35.1 M17.7,52.1h35.1 M17.7,81h35.1" style="fill:none"/></g><circle cx="79.7" cy="67" r="18.3" style="fill:#8bc34a;stroke:#8bc34a"/></g><path d="m88.5 64.5l-5.3-5.3 1.1-1.1 5.3 5.3c0 .1-1.1 1.1-1.1 1.1m-14.3 7.9l-2.1-2.1 10-10 2.1 2.1-10 10m-5.4 5.6c-.1.3 0 .6.2.8.2.2.5.3.8.2l6.4-2.5-4.9-4.9c-.1 0-2.5 6.4-2.5 6.4m22.3-16.1c1.5-1.5 1.5-3.8 0-5.3-1.5-1.5-3.8-1.5-5.3 0l-.5.5 5.3 5.3.5-.5m-5.8 1.6l2.1 2.1-10 10-2.1-2.1c0 0 10-10 10-10" style="fill:#fff"/></svg>

<?xml version="1.0" encoding="utf-8"?>
<!-- Generator: Adobe Illustrator 20.1.0, SVG Export Plug-In . SVG Version: 6.00 Build 0)  -->
<svg version="1.1" id="Layer_1" xmlns="http://www.w3.org/2000/svg" xmlns:xlink="http://www.w3.org/1999/xlink" x="0px" y="0px"
	 viewBox="0 0 100 100" style="enable-background:new 0 0 100 100;" xml:space="preserve">
<style type="text/css">
	.st0{fill:#FFFFFF;stroke:#999999;stroke-width:3;stroke-linecap:round;stroke-linejoin:round;stroke-miterlimit:10;}
	.st1{display:none;fill:#999999;stroke:#999999;stroke-miterlimit:10;}
	.st2{fill:none;stroke:#999999;stroke-width:3;stroke-linecap:round;stroke-linejoin:round;stroke-miterlimit:10;}
	.st3{fill:#8BC34A;stroke:#8BC34A;stroke-width:3;stroke-linecap:round;stroke-linejoin:round;stroke-miterlimit:10;}
	.st4{display:none;fill:#FFFFFF;stroke:#FFFFFF;stroke-miterlimit:10;}
	.st5{fill:#FFFFFF;}
</style>
<g id="assignment">
	<path class="st0" d="M49.9,33.4h18.4L45,11.1v17.5C45,31.2,47.2,33.4,49.9,33.4z"/>
	<path class="st0" d="M49.9,33.4c-2.7,0-4.8-2.1-4.8-4.8V11.1h-37c-2.7,0-4.8,2.1-4.8,4.8v76.9c0,2.7,2.1,4.8,4.8,4.8h55.3
		c2.7,0,4.8-2.1,4.8-4.8V33.4C68.2,33.4,49.9,33.4,49.9,33.4z"/>
	<path class="st1" d="M18.8,44.6c-1,0-2-0.4-2.8-1.1c-0.9-0.8-1.3-1.9-1.3-3.2v-21c0-0.5,0.4-0.9,0.9-0.9c0.5,0,0.9,0.4,0.9,0.9v21
		c0,0.7,0.3,1.4,0.7,1.8c0.4,0.4,1,0.7,1.6,0.6c0.5,0,1.3-0.2,1.9-0.6c0.7-0.4,1-1.1,1-1.8l0-33c0-3-1.2-4.4-3.9-4.5
		c-3.1,0.1-4.4,1.4-4.4,4.4l0,2.1c0,0.5-0.4,0.9-0.9,0.9c0,0,0,0,0,0c-0.5,0-0.9-0.4-0.9-0.9l0-2.1c0-4.1,2.1-6.2,6.3-6.3
		c2.7,0.1,5.8,1.3,5.8,6.3l0,33c0,1.4-0.7,2.6-1.8,3.4c-1,0.6-2.1,0.9-2.9,0.9C18.9,44.6,18.9,44.6,18.8,44.6z"/>
	<path class="st2" d="M17.7,66.4h35.1 M17.7,52.1h35.1 M17.7,81h35.1"/>
</g>
<circle class="st3" cx="79.7" cy="67" r="18.3"/>
<path class="st4" d="M79.8,77.1c-0.6,0-1-0.5-1-1V57.4c0-0.6,0.5-1,1-1c0.6,0,1,0.5,1,1v18.7C80.9,76.7,80.4,77.1,79.8,77.1z"/>
<path class="st4" d="M89.2,67.8H70.5c-0.6,0-1-0.5-1-1c0-0.6,0.5-1,1-1h18.7c0.6,0,1,0.5,1,1C90.2,67.3,89.8,67.8,89.2,67.8z"/>
<path id="Layer_1_1_" class="st5" d="M88.5,64.5l-5.3-5.3l1.1-1.1l5.3,5.3C89.6,63.5,88.5,64.5,88.5,64.5z M74.2,72.4l-2.1-2.1
	l10-10l2.1,2.1L74.2,72.4z M68.8,78c-0.1,0.3,0,0.6,0.2,0.8c0.2,0.2,0.5,0.3,0.8,0.2l6.4-2.5l-4.9-4.9C71.2,71.6,68.8,78,68.8,78z
	 M91.1,61.9c1.5-1.5,1.5-3.8,0-5.3c-1.5-1.5-3.8-1.5-5.3,0l-0.5,0.5l5.3,5.3L91.1,61.9z M85.3,63.5l2.1,2.1l-10,10l-2.1-2.1
	C75.3,73.5,85.3,63.5,85.3,63.5z"/>
</svg>
